X: 42645
T: Whiskey In A Pint Glass
R: polka
M: 2/4
K: Gmajor
|:B2 c2 B2 A2|G2 E2 E2 (3DEF|G2 G2 G2 A2|1 dedc B2dc:|2 BdBA G4||
|:g3 a g2 e2|d2 B2 B2 d2|e2 a2 a2 ga|b2 a2 a2 e2|
f2 g2 f2 e2|d2 e2 d2 c2|1 BcBA GAGA|B2 G2 G2 d2:|2 BcBA dedc|B2 G2 G4||
|:Bc BA|GE E (3D/E/F/|GG GA|1 d/e/d/c/ Bd/c/:|2 B/d/B/A/ G2||
|:g>a ge|dB Bd|ea ag/a/|ba ae|
fg fe|de dc|1 B/c/B/A/ G/A/G/A/|BG Gd:|2 B/c/B/A/ d/e/d/c/|BG G2||

